_includes/icons/ios-clock.svg

<svg fill="#666" height="50" viewBox="0 0 50 50" width="50" xmlns="http://www.w3.org/2000/svg"><path d="m25 2c-12.690705 0-23 10.309295-23 23s10.309295 23 23 23 23-10.309295 23-23-10.309295-23-23-23zm0 2c11.609824 0 21 9.390176 21 21s-9.390176 21-21 21-21-9.390176-21-21 9.390176-21 21-21zm-.015625 2.9863281a1.0001 1.0001 0 0 0 -.984375 1.0136719v14.173828a3 3 0 0 0 -2 2.826172 3 3 0 0 0 .294922 1.291016l-6.001953 6.001953a1.0001 1.0001 0 1 0 1.414062 1.414062l6.001953-6.001953a3 3 0 0 0 1.291016.294922 3 3 0 0 0 3-3 3 3 0 0 0 -2-2.824219v-14.175781a1.0001 1.0001 0 0 0 -1.015625-1.0136719z"/></svg>

<svg xmlns="http://www.w3.org/2000/svg" viewBox="0 0 50 50" width="50" height="50" fill="#666"><path style="line-height:normal;text-indent:0;text-align:start;text-decoration-line:none;text-decoration-style:solid;text-decoration-color:#000;text-transform:none;block-progression:tb;isolation:auto;mix-blend-mode:normal" d="M 25 2 C 12.309295 2 2 12.309295 2 25 C 2 37.690705 12.309295 48 25 48 C 37.690705 48 48 37.690705 48 25 C 48 12.309295 37.690705 2 25 2 z M 25 4 C 36.609824 4 46 13.390176 46 25 C 46 36.609824 36.609824 46 25 46 C 13.390176 46 4 36.609824 4 25 C 4 13.390176 13.390176 4 25 4 z M 24.984375 6.9863281 A 1.0001 1.0001 0 0 0 24 8 L 24 22.173828 A 3 3 0 0 0 22 25 A 3 3 0 0 0 22.294922 26.291016 L 16.292969 32.292969 A 1.0001 1.0001 0 1 0 17.707031 33.707031 L 23.708984 27.705078 A 3 3 0 0 0 25 28 A 3 3 0 0 0 28 25 A 3 3 0 0 0 26 22.175781 L 26 8 A 1.0001 1.0001 0 0 0 24.984375 6.9863281 z"/></svg>
